src/images/logo.svg

<svg height="500" preserveAspectRatio="xMidYMid meet" viewBox="0 0 375 374.999991" width="500" xmlns="http://www.w3.org/2000/svg" xmlns:xlink="http://www.w3.org/1999/xlink" zoomAndPan="magnify"><clipPath id="a"><path d="m0 43.636719h375v288h-375zm0 0"/></clipPath><g clip-path="url(#a)"><path d="m374.703125 126.519531c-.019531 17.105469-3.546875 40.933594-7.113281 48.410157-5.90625 12.402343-13.011719-.421876-107.527344-55.597657-14.980469-8.746093-33.167969-12.476562-24.761719-23.390625 52.773438-68.527344 128.421875-55.882812 139.402344 30.578125zm-207.597656 85.144531c-18.480469 36.71875-64.96875 83.34375-90.941407 107.148438-16.425781 15.066406-37.917968 2.4375-37.300781-33.546875.289063-50.28125 50.175781-80.195313 74.820313-97.859375 13.546875-9.703125 31.882812-17.632812 46-7.871094 6.703125 4.636719 10.5625 6.570313 10.910156 12.636719.378906 6.773437-.40625 13.359375-3.488281 19.492187zm-38.832031 2.203126c-19.085938 9.847656-17.347657 19.402343-9.621094 20.066406 6.578125-.300782 13.957031-7.046875 15.957031-13.796875.996094-3.339844-2.410156-8.292969-6.335937-6.269531zm203.453124 92.421874c-9.003906 28.414063-45.5625 3.945313-66.164062-17.480468-15.097656-15.6875-23.335938-21.15625-48.582031-61.40625-5.300781-8.445313-8.574219-17.648438-9.417969-27.898438-.769531-9.394531 9.386719-22.695312 21.953125-22.820312 32.898437-.320313 70.386719 35.222656 89.054687 64.378906 12.339844 19.265625 22.007813 37.285156 13.15625 65.226562zm-85.121093-83.523437c-5.972657-11.730469-22.261719-14.675781-17.835938-1.367187 1.871094 5.617187 6.070313 9.347656 10.421875 12.921874 2.90625 2.386719 5.738282 2.089844 7.816406-1.035156 2.203126-3.019531.421876-8.890625-.402343-10.519531zm-245.335938-68.273437c2.425781 11.203124 12.890625 11.828124 23.207031 6.59375 10.9375-5.550782 36.765626-18.683594 47.414063-24.574219 67.484375-37.300781 74.097656-27.820313 67.082031-43.785157-11.546875-26.238281-42.3125-42.082031-60.511718-47.238281-19.464844-5.507812-39.847657.679688-55.554688 26.484375-13.957031 22.921875-26.191406 61.480469-21.636719 82.519532zm204.058594 127.933593c-26.296875-1.335937-29.386719-2.191406-36.695313.40625-9.546874 3.386719-12.863281 13.089844-7.492187 21.683594 5.105469 8.164063 11.5 15.367187 18.070313 22.332031 5.824218 6.183594 13.59375 5.921875 19.460937-.226562 1.964844-2.0625 17.765625-23.820313 17.644531-32.84375-.726562-6.925782-3.71875-10.988282-10.988281-11.351563zm0 0" fill="#545454"/></g></svg>

<svg xmlns="http://www.w3.org/2000/svg" xmlns:xlink="http://www.w3.org/1999/xlink" width="500" zoomAndPan="magnify"
  viewBox="0 0 375 374.999991" height="500" preserveAspectRatio="xMidYMid meet" version="1.0">
  <defs>
    <clipPath id="a91f0c4990">
      <path d="M 0 43.636719 L 375 43.636719 L 375 331.636719 L 0 331.636719 Z M 0 43.636719 " clip-rule="nonzero" />
    </clipPath>
  </defs>
  <g clip-path="url(#a91f0c4990)">
    <path fill="#545454"
      d="M 374.703125 126.519531 C 374.683594 143.625 371.15625 167.453125 367.589844 174.929688 C 361.683594 187.332031 354.578125 174.507812 260.0625 119.332031 C 245.082031 110.585938 226.894531 106.855469 235.300781 95.941406 C 288.074219 27.414062 363.722656 40.058594 374.703125 126.519531 Z M 167.105469 211.664062 C 148.625 248.382812 102.136719 295.007812 76.164062 318.8125 C 59.738281 333.878906 38.246094 321.25 38.863281 285.265625 C 39.152344 234.984375 89.039062 205.070312 113.683594 187.40625 C 127.230469 177.703125 145.566406 169.773438 159.683594 179.535156 C 166.386719 184.171875 170.246094 186.105469 170.59375 192.171875 C 170.972656 198.945312 170.1875 205.53125 167.105469 211.664062 Z M 128.273438 213.867188 C 109.1875 223.714844 110.925781 233.269531 118.652344 233.933594 C 125.230469 233.632812 132.609375 226.886719 134.609375 220.136719 C 135.605469 216.796875 132.199219 211.84375 128.273438 213.867188 Z M 331.726562 306.289062 C 322.722656 334.703125 286.164062 310.234375 265.5625 288.808594 C 250.464844 273.121094 242.226562 267.652344 216.980469 227.402344 C 211.679688 218.957031 208.40625 209.753906 207.5625 199.503906 C 206.792969 190.109375 216.949219 176.808594 229.515625 176.683594 C 262.414062 176.363281 299.902344 211.90625 318.570312 241.0625 C 330.910156 260.328125 340.578125 278.347656 331.726562 306.289062 Z M 246.605469 222.765625 C 240.632812 211.035156 224.34375 208.089844 228.769531 221.398438 C 230.640625 227.015625 234.839844 230.746094 239.191406 234.320312 C 242.097656 236.707031 244.929688 236.410156 247.007812 233.285156 C 249.210938 230.265625 247.429688 224.394531 246.605469 222.765625 Z M 1.269531 154.492188 C 3.695312 165.695312 14.160156 166.320312 24.476562 161.085938 C 35.414062 155.535156 61.242188 142.402344 71.890625 136.511719 C 139.375 99.210938 145.988281 108.691406 138.972656 92.726562 C 127.425781 66.488281 96.660156 50.644531 78.460938 45.488281 C 58.996094 39.980469 38.613281 46.167969 22.90625 71.972656 C 8.949219 94.894531 -3.285156 133.453125 1.269531 154.492188 Z M 205.328125 282.425781 C 179.03125 281.089844 175.941406 280.234375 168.632812 282.832031 C 159.085938 286.21875 155.769531 295.921875 161.140625 304.515625 C 166.246094 312.679688 172.640625 319.882812 179.210938 326.847656 C 185.035156 333.03125 192.804688 332.769531 198.671875 326.621094 C 200.636719 324.558594 216.4375 302.800781 216.316406 293.777344 C 215.589844 286.851562 212.597656 282.789062 205.328125 282.425781 Z M 205.328125 282.425781 "
      fill-opacity="1" fill-rule="nonzero" />
  </g>
</svg>
